X: 13553
T: Fluter's Hangout, The
R: jig
M: 6/8
K: Gmajor
|:G3 FED|G2B edG|e3 dBG|A2G FED|
G3 FED|G2B edG|e2g d2G|AGF G3:|
|:e3 dBG|g2f efg|e2g d2G|AGA BGE|
[1e3 dBG|g2f efg|e2g d2G|AGF G3:|
[2G3 FED|G2B edG|e2g d2G|AGF G3||

